X: 87
T:Et Dodim Kala
C:Yemenite 1959
O:Israel
I:choreographer Moshiko 1959
F: http://www.youtube.com/watch?v=p4HLf9la5Ew
F: http://www.youtube.com/watch?v=K6dXPrDS9Ms
F: http://www.youtube.com/watch?v=fpqNajyEAno
Z:Seymour Shlien fy733@ncf.ca
L:1/8
M:2/4
Q:1/4=90
K:Am
 "E"EB2 B     | B2 B2       | cB cB  | "Fm"c>B "Am"A2|\
 "D"dc "E"cB  | BA ^GA      | B3 c   | BA B2          |
 EB2 B        | B2 B2       | cB cB  |"Fm" c>B "Am"A2 |\
 "Dm"dc "E"cB |BA ^GA       | B4-    |B4              |
 BA A^G       |"Fm"^GF "E"EF| ^G4-   |^G4             |\
 BA A^G       |"Fm"^GF FE   |  "E"B4-|B4              | BA A^G       |
 "Fm"^GF "E"EF| ^G4-        |^G4     | BA A^G         | "Fm"^GF "E"FE| E4|



